templates/main/source/images/mtsabank_new_logo.svg

<?xml version="1.0" encoding="utf-8"?>
<svg width="240px" height="39px" viewBox="0 0 240 39" version="1.1" xmlns:xlink="http://www.w3.org/1999/xlink" xmlns="http://www.w3.org/2000/svg">
  <desc>Created with Lunacy</desc>
  <g id="mtsabank_new_logo">
    <path d="M0 23.0996C0 30.5909 4.20571 38.1457 13.6236 38.1457C23.033 38.1457 27.2472 30.5909 27.2472 23.0996C27.2472 17.9822 25.519 12.0896 22.6345 7.33004C19.8294 2.73384 16.4591 0 13.6236 0C10.78 0 7.40813 2.73384 4.62744 7.33004C1.72938 12.0896 0 17.9822 0 23.0996ZM66.4088 2.0434L60.9616 22.3726L55.5142 2.0434L37.4635 2.0434L37.4635 36.1024L47.6808 36.1024L47.6812 8.39901L55.1038 36.1024L66.8193 36.1024L74.2468 8.3814L74.2468 36.1024L84.4647 36.1024L84.4647 2.0434L66.4088 2.0434ZM87.1898 11.239L96.7262 11.239L96.7262 36.1019L106.944 36.1019L106.944 11.239L116.48 11.239L116.48 2.0434L87.1898 2.0434L87.1898 11.239ZM138.277 11.2394L153.264 11.2394L153.264 2.0434L138.278 2.0434C124.508 2.0434 117.157 8.88923 117.157 19.0728C117.157 29.2565 124.508 36.1024 138.278 36.1024L153.264 36.1024L153.264 26.9064L138.277 26.9064C131.906 26.9064 127.715 24.6286 127.715 19.0728C127.715 13.5171 131.906 11.2394 138.277 11.2394ZM170.294 19.0725L179.622 19.0725C183.398 19.0725 185.224 16.999 185.224 13.5195C185.224 10.2125 183.398 8.33655 179.622 8.33655L175.106 8.33655L175.106 6.11574L184.015 6.11574L184.015 2.0434L170.294 2.0434L170.294 19.0725ZM198.377 2.0434L203.634 19.0728L198.426 19.0728L197.441 15.8152L191.418 15.8152L190.455 19.0728L185.963 19.0728L191.221 2.0434L198.377 2.0434ZM215.801 19.0728L215.801 12.4834L210.297 12.4834L210.297 19.0728L205.362 19.0728L205.362 2.0434L210.297 2.0434L210.297 8.28728L215.801 8.28728L215.801 2.0434L220.738 2.0434L220.738 19.0728L215.801 19.0728ZM228.631 8.28728L229.496 8.28728L233.914 2.0434L239.121 2.0434L233.444 10.1633L239.614 19.0728L233.914 19.0728L229.348 12.4834L228.631 12.4834L228.631 19.0728L223.696 19.0728L223.696 2.0434L228.631 2.0434L228.631 8.28728ZM192.528 12.1129L194.429 5.81978L196.33 12.1129L192.528 12.1129ZM178.709 11.9155L175.106 11.9155L175.106 15.2473L178.709 15.2473C179.622 15.2473 180.165 14.7783 180.165 13.9144L180.165 13.2976C180.165 12.4089 179.696 11.9155 178.709 11.9155Z" id="Shape" fill="#EA212E" fill-rule="evenodd" stroke="none" />
  </g>
</svg>

<svg width="240" height="39" viewBox="0 0 240 39" xmlns:xlink="http://www.w3.org/1999/xlink" xmlns="http://www.w3.org/2000/svg"><g id="mtsabank_new_logo"><path d="M0 23.1c0 7.49 4.206 15.046 13.624 15.046 9.409 0 13.623-7.555 13.623-15.046 0-5.118-1.728-11.01-4.613-15.77C19.83 2.734 16.46 0 13.624 0 10.78 0 7.408 2.734 4.627 7.33 1.73 12.09 0 17.982 0 23.1zM66.409 2.043l-5.447 20.33-5.448-20.33h-18.05v34.06H47.68V8.398l7.423 27.703h11.715l7.428-27.72v27.72h10.218V2.043H66.409zm20.78 9.196h9.537v24.863h10.218V11.239h9.536V2.043H87.19v9.196zm51.088 0h14.987V2.043h-14.986c-13.77 0-21.121 6.846-21.121 17.03 0 10.183 7.351 17.03 21.121 17.03h14.986v-9.197h-14.987c-6.371 0-10.562-2.277-10.562-7.833s4.191-7.834 10.562-7.834zm32.017 7.834h9.328c3.776 0 5.602-2.074 5.602-5.553 0-3.307-1.826-5.183-5.602-5.183h-4.516V6.116h8.909V2.043h-13.721v17.03zm28.083-17.03l5.257 17.03h-5.208l-.985-3.258h-6.023l-.963 3.258h-4.492l5.258-17.03h7.156zm17.424 17.03v-6.59h-5.504v6.59h-4.935V2.043h4.935v6.244h5.504V2.043h4.937v17.03h-4.937zm12.83-10.786h.865l4.418-6.244h5.207l-5.677 8.12 6.17 8.91h-5.7l-4.566-6.59h-.717v6.59h-4.935V2.043h4.935v6.244zm-36.103 3.826l1.901-6.293 1.901 6.293h-3.802zm-13.819-.197h-3.603v3.331h3.603c.913 0 1.456-.469 1.456-1.333v-.616c0-.89-.469-1.383-1.456-1.383z" id="Shape" fill="#EA212E" fill-rule="evenodd" stroke="none"/></g></svg>
